frontend/myportfolio/public/animation3d_backup.svg

<?xml version="1.0" encoding="UTF-8" standalone="no"?>
<!-- Created with Inkscape (http://www.inkscape.org/) -->

<svg
   width="100"
   height="100"
   viewBox="0 0 100 100"
   version="1.1"
   id="svg1"
   xml:space="preserve"
   sodipodi:docname="animation3d_backup.svg"
   inkscape:version="1.4 (e7c3feb100, 2024-10-09)"
   xmlns:inkscape="http://www.inkscape.org/namespaces/inkscape"
   xmlns:sodipodi="http://sodipodi.sourceforge.net/DTD/sodipodi-0.dtd"
   xmlns="http://www.w3.org/2000/svg"
   xmlns:svg="http://www.w3.org/2000/svg"><sodipodi:namedview
     id="namedview1"
     pagecolor="#ffffff"
     bordercolor="#000000"
     borderopacity="0.25"
     inkscape:showpageshadow="2"
     inkscape:pageopacity="0.0"
     inkscape:pagecheckerboard="0"
     inkscape:deskcolor="#d1d1d1"
     showgrid="true"
     showguides="true"
     inkscape:zoom="256"
     inkscape:cx="88.146484"
     inkscape:cy="6.7148438"
     inkscape:window-width="2540"
     inkscape:window-height="1381"
     inkscape:window-x="0"
     inkscape:window-y="0"
     inkscape:window-maximized="1"
     inkscape:current-layer="layer3"><inkscape:grid
       id="grid1"
       units="px"
       originx="0"
       originy="0"
       spacingx="1"
       spacingy="1"
       empcolor="#0099e5"
       empopacity="0.30196078"
       color="#0099e5"
       opacity="0.14901961"
       empspacing="1"
       enabled="true"
       visible="true" /><sodipodi:guide
       position="86.666163,93.46228"
       orientation="0.58238402,0.81291381"
       id="guide1"
       inkscape:locked="false" /><sodipodi:guide
       position="23.197103,75.247512"
       orientation="0.72430609,-0.68947856"
       id="guide2"
       inkscape:locked="false" /><sodipodi:guide
       position="87.266413,92.995098"
       orientation="0,-1"
       id="guide6"
       inkscape:locked="false" /><sodipodi:guide
       position="85.966121,17.763671"
       orientation="0.2674726,-0.96356547"
       id="guide7"
       inkscape:locked="false" /><sodipodi:guide
       position="52.94462,6.8386818"
       orientation="0,-1"
       id="guide9"
       inkscape:locked="false" /><sodipodi:guide
       position="10.875,17.96875"
       orientation="0,-1"
       id="guide15"
       inkscape:locked="false" /><sodipodi:guide
       position="0.15625,94.992188"
       orientation="1,0"
       id="guide16"
       inkscape:locked="false" /><sodipodi:guide
       position="12.375,81.773438"
       orientation="-0.88094512,-0.47321845"
       id="guide11"
       inkscape:locked="false" /></sodipodi:namedview><defs
     id="defs1" /><g
     id="g22"
     transform="matrix(5.89093,-1.6658277,-1.6658277,-5.89093,48.723778,734.95833)"
     style="display:none"><path
       style="fill:none;stroke:#0000ff;stroke-width:0.00552427;stroke-linecap:square;stroke-linejoin:miter;stroke-miterlimit:4;stroke-dasharray:none;stroke-opacity:0.5"
       d="m 24.003906,101 v 1.00391"
       id="path19" /><path
       style="fill:none;stroke:#ff0000;stroke-width:0.00552427;stroke-linecap:butt;stroke-linejoin:miter;stroke-miterlimit:4;stroke-dasharray:none;stroke-opacity:0.5"
       d="m 24.003906,102.00391 c 0.554442,0 1.003906,-0.44947 1.003906,-1.00391"
       id="path20" /><path
       style="fill:none;stroke:#ff0000;stroke-width:0.00552427;stroke-linecap:square;stroke-linejoin:miter;stroke-miterlimit:4;stroke-dasharray:none;stroke-opacity:0.5"
       d="m 24.003906,101 h 1.003906"
       id="path21" /><g
       x="0"
       y="0"
       id="g19"
       transform="matrix(0.00552427,0,0,0.00552427,24.162121,101.95971)"><rect
         style="fill:#333333;fill-opacity:0.5;stroke-width:0"
         x="-18.879995"
         y="-7.46"
         width="43.759991"
         height="13.46"
         id="rect19" /><text
         xml:space="preserve"
         style="text-align:start;writing-mode:lr-tb;direction:ltr;text-anchor:start;opacity:0.68;fill:#ffd5d5"
         x="2"
         y="2"
         id="text19"><tspan
           sodipodi:role="line"
           style="font-style:normal;font-weight:normal;font-size:10px;line-height:125%;text-align:center;letter-spacing:0;word-spacing:0;text-anchor:middle;fill:#ffffff;fill-opacity:1;stroke:none"
           id="tspan19"
           x="2"
           y="2">0.27 mm</tspan></text></g><g
       x="0"
       y="0"
       id="g21"
       transform="matrix(0.00552427,0,0,0.00552427,24.705793,101.72092)"><rect
         style="fill:#337f33;fill-opacity:0.5;stroke-width:0"
         x="-15.464994"
         y="-7.46"
         width="36.929989"
         height="13.46"
         id="rect21" /><text
         xml:space="preserve"
         style="text-align:start;writing-mode:lr-tb;direction:ltr;text-anchor:start;opacity:0.68;fill:#ffd5d5"
         x="2"
         y="2"
         id="text21"><tspan
           sodipodi:role="line"
           style="font-style:normal;font-weight:normal;font-size:10px;line-height:125%;text-align:center;letter-spacing:0;word-spacing:0;text-anchor:middle;fill:#ffffff;fill-opacity:1;stroke:none"
           id="tspan21"
           x="2"
           y="2">90.00 °</tspan></text></g></g><g
     id="layer1"
     style="display:inline"><path
       d="M 0.5,4.4 Q 0,5 0,6 v 4 q 0,0 0,0 v 80 q 0,0 0,0 v 8 q 0,2 2,2 h 8 q 0,0 0,0 h 80 q 0,0 0,0 h 8 q 2,0 2,-2 v -8 q 0,0 0,0 V 10 q 0,0 0,0 V 6 q 0,-1 -0.5,-1.6 l -3,-3.9 Q 96.1,0 95,0 H 5 Q 3.9,0 3.5,0.5 Z"
       id="path0"
       style="display:inline;fill:#cccccc;stroke-width:0.833333" /><path
       style="display:none;opacity:1;fill:#00ff00;stroke-width:0.918642"
       d="M 13.45,6.4 Q 13,6.8 13,7.2 v 11 q 0,0 0,0 V 74 q 0,0 0,0 v 6.8 q 0.08,1.2 1,1.4 l 7.1,1.8 q 0,0 0,0 l 48.8,13.6 q 0,0 0,0 l 7.1,2.1 q 1,0.2 2,-0.7 l 7.5,-5.35 Q 87,93 87,92 V 35 q 0,0 0,0 v -5 q 0,0 0,0 V 19 q 0,-1 -1.2,-1.26 L 23,0.3 Q 22,0.1 21,1 Z"
       id="path5" /><path
       style="display:inline;opacity:0.68;fill:#e9afaf;stroke-width:0.011;stroke:#000000;stroke-opacity:1;stroke-dasharray:none"
       d="m 13,30 q 0,0 0,0 v 5 q 0,0 0,0 v 57 q 0,1 0.5,1.64 L 21,99 q 1,0.9 2,0.7 l 7.1,-2.1 q 0,0 0,0 L 78.9,84 q 0,0 0,0 L 86,82.2 Q 86.92,82 87,80.8 V 74 q 0,0 0,0 V 18.2 q 0,0 0,0 V 7.2 Q 87,6.8 86.55,6.4 L 79,1 Q 78,0.1 77,0.3 L 14.2,17.74 Q 13,18 13,19 Z"
       id="path1" /></g><g
     id="layer2"><path
       d="M 23.2,24.74 Q 22,25 22,26 L 22, 99.64 Q 22.54,99.82 23, 99.7 L 86, 82.2 Q 86.92, 82 87,80.8 L 87, 7 Q 87,7 87,7 Z"
       id="path3"
       style="display:inline;opacity:0.6;fill:#e6e6e6;stroke-width:0;stroke-dasharray:none;stroke:#000000;stroke-opacity:1"
       inkscape:label="frame1"
       inkscape:highlight-color="#000000" /><path
       d="M 1.5,5 Q 0,5 0,6.5 V 98 q 0,2 2,2 h 96 q 2,0 2,-2 V 6.5 Q 100,5 98.5,5 Z"
       id="path4"
       style="display:none;opacity:0.61;fill:#9dac93"
       inkscape:label="frame0" /><path
       d="m 13,7 c 0,0 0,0 0,0 v 73.8 q 0.08,1.2 1,1.4 l 63,17.5 q 0.46,0.12 1,-0.06 V 26 q 0,-1 -1.2,-1.26 z"
       id="path9"
       style="display:none;opacity:0.47;fill:#55d400"
       inkscape:label="frame5" /></g><g
     inkscape:groupmode="layer"
     id="layer3"
     inkscape:label="Layer 3"><path
       d="M 14.2,17.74 Q 13,18 13,19 L 23.2,24.74 Q 22,25 22,26 Z"
       style="fill:#cccccc;opacity:0.26"
       id="path2"
       inkscape:label="depth5" /><path
       d="M 14.2,17.74 Q 13,18 13,19 L 23.2,24.74 Q 22,25 22,26 Z"
       style="fill:#cccccc;opacity:0.26"
       id="path15"
       inkscape:label="depth5" /></g></svg>

<?xml version="1.0" encoding="UTF-8" standalone="no"?>
<!-- Created with Inkscape (http://www.inkscape.org/) -->

<svg
   width="100"
   height="100"
   viewBox="0 0 100 100"
   version="1.1"
   id="svg1"
   xml:space="preserve"
   sodipodi:docname="animation3d_backup.svg"
   inkscape:version="1.4 (e7c3feb100, 2024-10-09)"
   xmlns:inkscape="http://www.inkscape.org/namespaces/inkscape"
   xmlns:sodipodi="http://sodipodi.sourceforge.net/DTD/sodipodi-0.dtd"
   xmlns="http://www.w3.org/2000/svg"
   xmlns:svg="http://www.w3.org/2000/svg"><sodipodi:namedview
     id="namedview1"
     pagecolor="#ffffff"
     bordercolor="#000000"
     borderopacity="0.25"
     inkscape:showpageshadow="2"
     inkscape:pageopacity="0.0"
     inkscape:pagecheckerboard="0"
     inkscape:deskcolor="#d1d1d1"
     showgrid="true"
     showguides="true"
     inkscape:zoom="32"
     inkscape:cx="13.328125"
     inkscape:cy="95.71875"
     inkscape:window-width="2540"
     inkscape:window-height="1381"
     inkscape:window-x="0"
     inkscape:window-y="0"
     inkscape:window-maximized="1"
     inkscape:current-layer="svg1"><inkscape:grid
       id="grid1"
       units="px"
       originx="0"
       originy="0"
       spacingx="1"
       spacingy="1"
       empcolor="#0099e5"
       empopacity="0.30196078"
       color="#0099e5"
       opacity="0.14901961"
       empspacing="1"
       enabled="true"
       visible="true" /><sodipodi:guide
       position="86.666163,93.46228"
       orientation="0.58238402,0.81291381"
       id="guide1"
       inkscape:locked="false" /><sodipodi:guide
       position="56.959781,84.695655"
       orientation="-0.26679186,0.96375417"
       id="guide2"
       inkscape:locked="false" /><sodipodi:guide
       position="87.266413,92.995098"
       orientation="0,-1"
       id="guide6"
       inkscape:locked="false" /><sodipodi:guide
       position="85.966121,17.763671"
       orientation="0.2674726,-0.96356547"
       id="guide7"
       inkscape:locked="false" /><sodipodi:guide
       position="88.476404,81.489015"
       orientation="0,-1"
       id="guide8"
       inkscape:locked="false" /><sodipodi:guide
       position="52.94462,6.8386818"
       orientation="0,-1"
       id="guide9"
       inkscape:locked="false" /><sodipodi:guide
       position="82.625,83.8125"
       orientation="0,-1"
       id="guide10"
       inkscape:locked="false" /><sodipodi:guide
       position="10.875,17.96875"
       orientation="0,-1"
       id="guide15"
       inkscape:locked="false" /><sodipodi:guide
       position="0.15625,94.992188"
       orientation="1,0"
       id="guide16"
       inkscape:locked="false" /></sodipodi:namedview><defs
     id="defs1" /><g
     id="g22"
     transform="matrix(5.89093,-1.6658277,-1.6658277,-5.89093,48.723778,734.95833)"
     style="display:none"><path
       style="fill:none;stroke:#0000ff;stroke-width:0.00552427;stroke-linecap:square;stroke-linejoin:miter;stroke-miterlimit:4;stroke-dasharray:none;stroke-opacity:0.5"
       d="m 24.003906,101 v 1.00391"
       id="path19" /><path
       style="fill:none;stroke:#ff0000;stroke-width:0.00552427;stroke-linecap:butt;stroke-linejoin:miter;stroke-miterlimit:4;stroke-dasharray:none;stroke-opacity:0.5"
       d="m 24.003906,102.00391 c 0.554442,0 1.003906,-0.44947 1.003906,-1.00391"
       id="path20" /><path
       style="fill:none;stroke:#ff0000;stroke-width:0.00552427;stroke-linecap:square;stroke-linejoin:miter;stroke-miterlimit:4;stroke-dasharray:none;stroke-opacity:0.5"
       d="m 24.003906,101 h 1.003906"
       id="path21" /><g
       x="0"
       y="0"
       id="g19"
       transform="matrix(0.00552427,0,0,0.00552427,24.162121,101.95971)"><rect
         style="fill:#333333;fill-opacity:0.5;stroke-width:0"
         x="-18.879995"
         y="-7.46"
         width="43.759991"
         height="13.46"
         id="rect19" /><text
         xml:space="preserve"
         style="text-align:start;writing-mode:lr-tb;direction:ltr;text-anchor:start;opacity:0.68;fill:#ffd5d5"
         x="2"
         y="2"
         id="text19"><tspan
           sodipodi:role="line"
           style="font-style:normal;font-weight:normal;font-size:10px;line-height:125%;text-align:center;letter-spacing:0;word-spacing:0;text-anchor:middle;fill:#ffffff;fill-opacity:1;stroke:none"
           id="tspan19"
           x="2"
           y="2">0.27 mm</tspan></text></g><g
       x="0"
       y="0"
       id="g21"
       transform="matrix(0.00552427,0,0,0.00552427,24.705793,101.72092)"><rect
         style="fill:#337f33;fill-opacity:0.5;stroke-width:0"
         x="-15.464994"
         y="-7.46"
         width="36.929989"
         height="13.46"
         id="rect21" /><text
         xml:space="preserve"
         style="text-align:start;writing-mode:lr-tb;direction:ltr;text-anchor:start;opacity:0.68;fill:#ffd5d5"
         x="2"
         y="2"
         id="text21"><tspan
           sodipodi:role="line"
           style="font-style:normal;font-weight:normal;font-size:10px;line-height:125%;text-align:center;letter-spacing:0;word-spacing:0;text-anchor:middle;fill:#ffffff;fill-opacity:1;stroke:none"
           id="tspan21"
           x="2"
           y="2">90.00 °</tspan></text></g></g><g
     id="layer1"><path
       d="M 0.5, 4.4 Q 0,5 0,6 L 0, 10 Q 0, 10 0, 10 L 0, 90 Q 0, 90 0,90 L 0,98 Q 0,100 2, 100 L 10, 100 Q 10,100 10, 100 L 90, 100 Q 90, 100 90,100 L 98,100 Q 100, 100 100, 98 L 100, 90 Q 100, 90 100, 90 L 100, 10 Q 100, 10 100, 10 L 100,6 Q 100,5 99.5,4.4 L 96.5, 0.5 Q 96.1,0 95,0 L 5, 0 Q 3.9,0 3.5,0.5 Z"
       id="path0"
       style="display:inline;fill:#cccccc;stroke-width:0.833333" /><path
       style="display:inline;opacity:1;fill:#00ff00;stroke-width:0.918642"
       d="M 13.45, 6.4 Q 13,6.8 13,7.2 L 13, 18.2 Q 13, 18.2 13, 18.2 L 13, 74 Q 13, 74 13, 74 L 13, 80.8 Q 13.08,82 14,82.2 L 21.1, 84 Q 21.1, 84 21.1, 84 L 69.9, 97.6 Q 69.9, 97.6 69.9, 97.6 L 77, 99.7 Q 78,99.9 79,99 L 86.5,93.65 Q 87,93 87,92 L 87, 35 Q 87, 35 87, 35 L 87, 30 Q 87, 30 87, 30 L 87, 19 Q 87,18 85.8,17.74 L 23, 0.3 Q 22,0.1 21,1 Z"
       id="path5" /><path
       style="display:inline;opacity:0.68;fill:#e9afaf;stroke-width:0.918642"
       d="M 13, 30 Q 13,30 13,30 L 13, 35 Q 13, 35 13, 35 L 13, 92 Q 13,93 13.5,93.64 L 21, 99 Q 22,99.9 23,99.7 L 30.1, 97.6 Q 30.1, 97.6 30.1, 97.6 L 78.9, 84 Q 78.9, 84 78.9, 84 L 86, 82.2 Q 86.92,82 87,80.8 L 87, 74 Q 87, 74 87, 74 L 87, 18.2 Q 87,18.2 87,18.2 L 87, 7.2 Q 87,6.8 86.55,6.4 L 79, 1 Q 78,0.1 77,0.3 L 14.2,17.74 Q 13,18 13,19 Z"
       id="path1" /></g><g
     id="layer2"><path
       d="M 23.2,24.74 Q 22,25 22,26 L 22, 100 L 87, 82.2 L 87, 7 Q 87,7 87,7 Z"
       id="path3"
       style="display:inline;fill:#ffd5d5;opacity:1"
       inkscape:label="frame1" /><path
       d="M 1.5,5 Q 0,5 0,6.5 V 98 q 0,2 2,2 h 96 q 2,0 2,-2 V 6.5 Q 100,5 98.5,5 Z"
       id="path4"
       style="display:none;opacity:0.61;fill:#9dac93"
       inkscape:label="frame0" /><path
       d="m 13,7 c 0,0 0,0 0,0 v 73.8 q 0.08,1.2 1,1.4 l 63,17.5 q 0.46,0.12 1,-0.06 V 26 q 0,-1 -1.2,-1.26 z"
       id="path9"
       style="display:none;opacity:0.47;fill:#55d400"
       inkscape:label="frame5" /></g></svg>
